Numix/64/mimetypes/virtualbox-vbox-extpack.svg

<?xml version="1.0" encoding="UTF-8" standalone="no"?>
<svg
   xmlns:dc="http://purl.org/dc/elements/1.1/"
   xmlns:cc="http://creativecommons.org/ns#"
   xmlns:rdf="http://www.w3.org/1999/02/22-rdf-syntax-ns#"
   xmlns:svg="http://www.w3.org/2000/svg"
   xmlns="http://www.w3.org/2000/svg"
   xmlns:sodipodi="http://sodipodi.sourceforge.net/DTD/sodipodi-0.dtd"
   xmlns:inkscape="http://www.inkscape.org/namespaces/inkscape"
   width="64px"
   height="64px"
   viewBox="0 0 64 64"
   version="1.1"
   id="svg2"
   inkscape:version="0.91 r13725"
   sodipodi:docname="application-vbox-2_P.svg">
  <metadata
     id="metadata15">
    <rdf:RDF>
      <cc:Work
         rdf:about="">
        <dc:format>image/svg+xml</dc:format>
        <dc:type
           rdf:resource="http://purl.org/dc/dcmitype/StillImage" />
        <dc:title></dc:title>
      </cc:Work>
    </rdf:RDF>
  </metadata>
  <defs
     id="defs13">
    <clipPath
       id="clipPath-419917221">
      <g
         transform="translate(0,-1004.3622)"
         id="g17">
        <path
           inkscape:connector-curvature="0"
           d="m -24,13 c 0,1.105 -0.672,2 -1.5,2 -0.828,0 -1.5,-0.895 -1.5,-2 0,-1.105 0.672,-2 1.5,-2 0.828,0 1.5,0.895 1.5,2 z"
           transform="matrix(15.333333,0,0,11.5,414.99999,878.8622)"
           style="fill:#1890d0"
           id="path19" />
      </g>
    </clipPath>
    <clipPath
       id="clipPath-412789426">
      <g
         transform="translate(0,-1004.3622)"
         id="g12">
        <path
           inkscape:connector-curvature="0"
           d="m -24,13 c 0,1.105 -0.672,2 -1.5,2 -0.828,0 -1.5,-0.895 -1.5,-2 0,-1.105 0.672,-2 1.5,-2 0.828,0 1.5,0.895 1.5,2 z"
           transform="matrix(15.333333,0,0,11.5,414.99999,878.8622)"
           style="fill:#1890d0"
           id="path14" />
      </g>
    </clipPath>
    <clipPath
       id="clipPath4213">
      <g
         transform="translate(0,-1004.3622)"
         id="g4215">
        <path
           inkscape:connector-curvature="0"
           d="m -24,13 c 0,1.105 -0.672,2 -1.5,2 -0.828,0 -1.5,-0.895 -1.5,-2 0,-1.105 0.672,-2 1.5,-2 0.828,0 1.5,0.895 1.5,2 z"
           transform="matrix(15.333333,0,0,11.5,414.99999,878.8622)"
           style="fill:#1890d0"
           id="path4217" />
      </g>
    </clipPath>
    <clipPath
       id="clipPath-419917221-6">
      <g
         transform="translate(0,-1004.3622)"
         id="g17-4">
        <path
           inkscape:connector-curvature="0"
           d="m -24,13 c 0,1.105 -0.672,2 -1.5,2 -0.828,0 -1.5,-0.895 -1.5,-2 0,-1.105 0.672,-2 1.5,-2 0.828,0 1.5,0.895 1.5,2 z"
           transform="matrix(15.333333,0,0,11.5,414.99999,878.8622)"
           style="fill:#1890d0"
           id="path19-0" />
      </g>
    </clipPath>
    <clipPath
       id="clipPath-412789426-7">
      <g
         transform="translate(0,-1004.3622)"
         id="g12-2">
        <path
           inkscape:connector-curvature="0"
           d="m -24,13 c 0,1.105 -0.672,2 -1.5,2 -0.828,0 -1.5,-0.895 -1.5,-2 0,-1.105 0.672,-2 1.5,-2 0.828,0 1.5,0.895 1.5,2 z"
           transform="matrix(15.333333,0,0,11.5,414.99999,878.8622)"
           style="fill:#1890d0"
           id="path14-8" />
      </g>
    </clipPath>
    <clipPath
       id="clipPath4251">
      <g
         transform="translate(0,-1004.3622)"
         id="g4253">
        <path
           inkscape:connector-curvature="0"
           d="m -24,13 c 0,1.105 -0.672,2 -1.5,2 -0.828,0 -1.5,-0.895 -1.5,-2 0,-1.105 0.672,-2 1.5,-2 0.828,0 1.5,0.895 1.5,2 z"
           transform="matrix(15.333333,0,0,11.5,414.99999,878.8622)"
           style="fill:#1890d0"
           id="path4255" />
      </g>
    </clipPath>
  </defs>
  <sodipodi:namedview
     pagecolor="#ffffff"
     bordercolor="#666666"
     borderopacity="1"
     objecttolerance="10"
     gridtolerance="10"
     guidetolerance="10"
     inkscape:pageopacity="0"
     inkscape:pageshadow="2"
     inkscape:window-width="1920"
     inkscape:window-height="1013"
     id="namedview11"
     showgrid="false"
     inkscape:zoom="1"
     inkscape:cx="32.374873"
     inkscape:cy="7.0265631"
     inkscape:window-x="0"
     inkscape:window-y="27"
     inkscape:window-maximized="1"
     inkscape:current-layer="svg2">
    <inkscape:grid
       type="xygrid"
       id="grid4157" />
  </sodipodi:namedview>
  <path
     inkscape:connector-curvature="0"
     id="path5"
     d="M 10.671875,0 C 9.296875,0 8,1.355469 8,2.789062 L 8,61.210938 C 8,62.566406 9.375,64 10.671875,64 l 42.65625,0 C 54.625,64 56,62.566406 56,61.210938 L 56,18 38,0 Z m 0,0"
     style="fill:#82b933;fill-opacity:1;fill-rule:nonzero;stroke:none" />
  <path
     inkscape:connector-curvature="0"
     id="path7"
     d="m 42,18 14,14 0,-14 z m 0,0"
     style="fill:#000000;fill-opacity:0.19607801;fill-rule:nonzero;stroke:none" />
  <path
     inkscape:connector-curvature="0"
     id="path9"
     d="M 38,0 55.984375,18 40.757812,18 C 39.410156,18 38,16.574219 38,15.226562 Z m 0,0"
     style="fill:#ffffff;fill-opacity:0.39215698;fill-rule:nonzero;stroke:none" />
  <path
     inkscape:connector-curvature="0"
     id="path13"
     d="M 8,48 8,61.33594 C 8,62.63281 9.375,64 10.664062,64 l 42.671876,0 C 54.625,64 56,62.63281 56,61.33594 L 56,48 Z m 0,0"
     style="fill:#000000;fill-opacity:0.19607801;fill-rule:nonzero;stroke:none" />
  <g
     id="g4187">
    <path
       d="m 18,62 0,-11 7.556674,0 0,1.8126 -5.078085,0 0,2.470114 4.413098,0 0,1.812601 -4.413098,0 0,3.092084 5.521411,0 L 26,62 18,62 Z"
       style="font-style:normal;font-variant:normal;font-weight:bold;font-stretch:normal;font-size:medium;line-height:125%;font-family:'Ubuntu Mono';-inkscape-font-specification:'Ubuntu Mono, Bold';text-align:start;letter-spacing:0px;word-spacing:0px;writing-mode:lr-tb;text-anchor:start;fill:#ffffff;fill-opacity:1;stroke:none;stroke-width:1px;stroke-linecap:butt;stroke-linejoin:miter;stroke-opacity:1"
       id="path4159"
       inkscape:connector-curvature="0" />
    <path
       d="M 34.217574,62 Q 33.820084,61.0937 33.23431,59.991922 32.669457,58.890145 32.041842,57.788368 31.435147,58.836834 30.828453,59.974152 30.221758,61.0937 29.782428,62 L 27,62 q 0.209206,-0.479807 0.606696,-1.155089 0.41841,-0.675284 0.899581,-1.457189 0.502091,-0.781907 1.046025,-1.599354 0.543932,-0.835218 1.046025,-1.599354 L 27.209206,51 l 2.782426,0 2.05021,3.518578 L 34.196653,51 l 2.594143,0 -3.30544,5.135702 q 0.564854,0.764136 1.108787,1.599354 0.543933,0.835218 1.004184,1.634895 0.481171,0.781908 0.83682,1.47496 Q 36.790796,61.520193 37,62 l -2.782426,0 z"
       style="font-style:normal;font-variant:normal;font-weight:bold;font-stretch:normal;font-size:medium;line-height:125%;font-family:'Ubuntu Mono';-inkscape-font-specification:'Ubuntu Mono, Bold';text-align:start;letter-spacing:0px;word-spacing:0px;writing-mode:lr-tb;text-anchor:start;fill:#ffffff;fill-opacity:1;stroke:none;stroke-width:1px;stroke-linecap:butt;stroke-linejoin:miter;stroke-opacity:1"
       id="path4161"
       inkscape:connector-curvature="0" />
    <path
       d="m 47,51 0,1.8126 -3.260001,0 0,9.1874 -2.479999,0 0,-9.1874 -3.26,0 0,-1.8126 9,0 z"
       style="font-style:normal;font-variant:normal;font-weight:bold;font-stretch:normal;font-size:medium;line-height:125%;font-family:'Ubuntu Mono';-inkscape-font-specification:'Ubuntu Mono, Bold';text-align:start;letter-spacing:0px;word-spacing:0px;writing-mode:lr-tb;text-anchor:start;fill:#ffffff;fill-opacity:1;stroke:none;stroke-width:1px;stroke-linecap:butt;stroke-linejoin:miter;stroke-opacity:1"
       id="path4163"
       inkscape:connector-curvature="0" />
  </g>
  <path
     style="fill:#ffffff;fill-opacity:1;fill-rule:nonzero;stroke:none"
     d="m 31.92087,18.820577 c -1.532414,5.855082 -3.122749,11.696691 -4.682765,17.540997 -2.437224,-6.733761 -0.03617,-0.03167 -2.436205,-6.733103 l -4.801901,0 0,2.401214 3.600819,0 3.600817,10.773937 0.457312,0.01191 c 1.224011,-5.667135 2.878834,-11.238649 4.378848,-16.832759 l 0,-0.02183 c 0.927611,3.37586 1.837683,6.757814 2.737692,10.138462 0.843608,-3.179532 1.699639,-6.359839 2.548046,-9.539373 1.87562,4.283272 -0.03581,-0.01904 1.876998,4.28338 l 4.79947,0 -0.0023,-2.413318 -3.600818,0 c -3.07083,-9.147141 -1.8e-5,4.34e-4 -3.075647,-9.352612 -0.848409,3.156787 -1.702071,6.312184 -2.550478,9.464184 -0.858009,-3.245374 -1.734242,-6.490337 -2.625851,-9.726135 l 0.0025,0.0025 z"
     id="path55"
     inkscape:connector-curvature="0"
     sodipodi:nodetypes="ccccccccccccccccccccc" />
</svg>

<svg xmlns="http://www.w3.org/2000/svg" viewBox="0 0 64 64">
 <defs>
  
 </defs>
 <path d="m 10.672 0 c -1.375 0 -2.672 1.355 -2.672 2.789 l 0 58.42 c 0 1.355 1.375 2.789 2.672 2.789 l 42.656 0 c 1.297 0 2.672 -1.434 2.672 -2.789 l 0 -43.21 -18 -18 m -27.328 0" style="fill:#82b933;fill-opacity:1;stroke:none;fill-rule:nonzero"/>
 <path d="m 42 18 14 14 0 -14 z m 0 0" style="fill:#000;fill-opacity:0.196;stroke:none;fill-rule:nonzero"/>
 <path d="m 38 0 17.984 18 -15.227 0 c -1.348 0 -2.758 -1.426 -2.758 -2.773 m 0 -15.227" style="fill:#fff;fill-opacity:0.392;stroke:none;fill-rule:nonzero"/>
 <path d="m 8 48 0 13.336 c 0 1.297 1.375 2.664 2.664 2.664 l 42.672 0 c 1.289 0 2.664 -1.367 2.664 -2.664 l 0 -13.336 m -48 0" style="fill:#000;fill-opacity:0.196;stroke:none;fill-rule:nonzero"/>
 <g>
  <path d="m 18 62 0 -11 7.557 0 0 1.813 -5.078 0 0 2.47 4.413 0 0 1.813 -4.413 0 0 3.092 5.521 0 l 0 1.813 -8 0" style="fill:#fff;fill-opacity:1;stroke:none"/>
  <path d="m 34.22 62 q -0.397 -0.906 -0.983 -2.01 -0.565 -1.102 -1.192 -2.204 -0.607 1.048 -1.213 2.186 -0.607 1.12 -1.046 2.026 l -2.782 0 q 0.209 -0.48 0.607 -1.155 0.418 -0.675 0.9 -1.457 0.502 -0.782 1.046 -1.599 0.544 -0.835 1.046 -1.599 l -3.389 -5.189 l 2.782 0 2.05 3.519 l 2.155 -3.519 l 2.594 0 -3.305 5.136 q 0.565 0.764 1.109 1.599 0.544 0.835 1 1.635 0.481 0.782 0.837 1.475 q 0.356 0.675 0.565 1.155 l -2.782 0 z" style="fill:#fff;fill-opacity:1;stroke:none"/>
  <path d="m 47 51 0 1.813 -3.26 0 0 9.187 -2.48 0 0 -9.187 -3.26 0 0 -1.813 9 0 z" style="fill:#fff;fill-opacity:1;stroke:none"/>
 </g>
 <path d="m 31.921 18.821 c -1.532 5.855 -3.123 11.697 -4.683 17.541 -2.437 -6.734 -0.036 -0.032 -2.436 -6.733 l -4.802 0 0 2.401 3.601 0 3.601 10.774 0.457 0.012 c 1.224 -5.667 2.879 -11.239 4.379 -16.833 l 0 -0.022 c 0.928 3.376 1.838 6.758 2.738 10.138 0.844 -3.18 1.7 -6.36 2.548 -9.539 1.876 4.283 -0.036 -0.019 1.877 4.283 l 4.799 0 -0.002 -2.413 -3.601 0 c -3.071 -9.147 0 0 -3.076 -9.353 -0.848 3.157 -1.702 6.312 -2.55 9.464 -0.858 -3.245 -1.734 -6.49 -2.626 -9.726 l 0.002 0.003 z" style="fill:#fff;fill-opacity:1;stroke:none;fill-rule:nonzero"/>
</svg>
